X:79
T:Drought. VWMLa.079
%%VWML:Anon2-3049-p46-0
F:http://www.vwml.org/record/Anon2/3049/p46
R:Slip jig
S:Anon. MS, late 18thC, Vaughan Williams Mem. Library
N:This tune is reminiscent of "The Lasses Liking",
N:Vickers #403....CGP....
O:England;Yorkshire
Z:vmp/efdss.Simon Wilson. Reviewed PJH 2008.
M:9/8
L:1/8
Q:3/8=110
K:Bb
F|(D/E/F).D BFE DCB,|(D/E/F).D ECC C2F|\
(D/E/F).D BFE DCB,|(D/E/F).D DB,B,B,2:|
|:F|BcB dBg fdB|A2F (A/B/c).c c2F|\
BcB fga bag|fbd c2B B2:|
T:Paddy Whack. VWMLa.080
R:Jig
S:Anon. MS, late 18thC, Vaughan Williams Mem. Library
O:England;Yorkshire
Z:vmp/efdss.Simon Wilson. Reviewed PJH 2008.
M:6/8
L:1/8
Q:3/8=120
K:G
D|GBd gfg|edc BAG|GBd gfg|fdd d2 (e/f/)|\
geg fdB|cec dBG|BdB cAc|BGG G2:|
|:c|BdB cec|Bdc BAG|BcB efg|fdd d2(e/f/)|\
geg fdB|cec dBG|cBc Adc|BGG G2:|
